bin/data/tex.cube
# Copyright: (C) Copyright 2016 by IWLTBAP
# Cannot be resold, shared or otherwise redistributed
# Website: http://luts.iwltbap.com
TITLE "IWLTBAP 8700 (Rec.709)"
LUT_3D_SIZE 5
DOMAIN_MIN 0.000000 0.000000 0.000000
DOMAIN_MAX 0.903226 0.903226 0.903226
0.061859 0.077515 0.085999
0.208266 0.115330 0.094947
0.375635 0.130844 0.085981
0.564078 0.159565 0.106423
0.756263 0.195591 0.130124
0.074780 0.180263 0.100267
0.267512 0.185103 0.083004
0.458903 0.202174 0.094885
0.661875 0.251067 0.109602
0.830578 0.322503 0.107219
0.080886 0.267846 0.099901
0.272647 0.327142 0.091693
0.539512 0.278569 0.097475
0.724852 0.321679 0.111579
0.860170 0.409523 0.108411
0.097042 0.377409 0.114721
0.307131 0.460466 0.107862
0.562366 0.533717 0.132636
0.765413 0.475193 0.115653
0.882295 0.532570 0.128506
0.124386 0.531549 0.138189
0.398149 0.629656 0.129972
0.605002 0.701526 0.130519
0.769746 0.758823 0.159691
0.893281 0.715239 0.160452
0.060862 0.111863 0.178638
0.138826 0.134737 0.175255
0.308255 0.153103 0.172743
0.518341 0.195288 0.191156
0.778521 0.254756 0.188252
0.070892 0.173645 0.204585
0.142685 0.219431 0.241038
0.404328 0.270038 0.235847
0.671746 0.305528 0.205440
0.849356 0.379598 0.201285
0.093821 0.351183 0.315532
0.143466 0.354745 0.253363
0.484998 0.363243 0.168475
0.702880 0.427804 0.214321
0.855919 0.528166 0.211098
0.112190 0.490158 0.350149
0.162328 0.481067 0.259029
0.455875 0.564402 0.235291
0.743848 0.575942 0.186142
0.873035 0.637256 0.215375
0.130578 0.602409 0.369296
0.250142 0.672071 0.298361
0.540511 0.717583 0.319154
0.759823 0.787467 0.225218
0.894748 0.771648 0.208000
0.069353 0.152165 0.267947
0.100842 0.165961 0.259428
0.201497 0.186792 0.252527
0.473262 0.210759 0.233708
0.723184 0.296504 0.274674
0.080965 0.202547 0.305960
0.122184 0.245877 0.362613
0.257555 0.292354 0.345482
0.578584 0.362758 0.343333
0.801816 0.457602 0.393300
0.091593 0.265933 0.335828
0.136939 0.324550 0.400046
0.286590 0.410451 0.446917
0.656334 0.507668 0.451266
0.843352 0.577992 0.471578
0.128111 0.497501 0.523040
0.162573 0.568306 0.572768
0.316588 0.596020 0.483126
0.724637 0.642065 0.381013
0.861897 0.701529 0.470304
0.163008 0.707036 0.691142
0.204091 0.715874 0.622997
0.482056 0.740931 0.491847
0.737942 0.802172 0.475489
0.895570 0.805516 0.257487
0.083458 0.206761 0.394135
0.105925 0.216008 0.377641
0.134896 0.228721 0.365457
0.362037 0.251747 0.320579
0.687710 0.313036 0.321921
0.095403 0.260174 0.438823
0.125123 0.301865 0.505538
0.167117 0.322435 0.494012
0.504494 0.400818 0.432217
0.761853 0.476462 0.466785
0.104886 0.302779 0.477563
0.136845 0.354243 0.541968
0.201277 0.416848 0.605407
0.583770 0.535794 0.563685
0.804665 0.613553 0.608325
0.120364 0.392142 0.527637
0.154206 0.452682 0.588225
0.231024 0.532613 0.654990
0.675122 0.697845 0.671580
0.847401 0.739969 0.685912
0.162930 0.615695 0.699598
0.193788 0.670237 0.745088
0.268960 0.745071 0.789777
0.729319 0.816202 0.674683
0.881342 0.830754 0.598935
0.102214 0.286720 0.568619
0.123556 0.294380 0.550187
0.139479 0.298050 0.528159
0.204232 0.331990 0.523517
0.649500 0.376148 0.420090
0.114195 0.341179 0.607921
0.142615 0.381866 0.664861
0.164517 0.393679 0.659384
0.290532 0.448464 0.653062
0.717803 0.526728 0.601799
0.123849 0.383516 0.639594
0.153920 0.430020 0.693721
0.196073 0.477417 0.744451
0.442645 0.568588 0.735451
0.775977 0.625314 0.700191
0.136372 0.439960 0.678213
0.167352 0.493022 0.729165
0.222075 0.556571 0.774349
0.595366 0.696441 0.800597
0.826941 0.748017 0.782055
0.156493 0.548414 0.726124
0.186934 0.594444 0.767687
0.255965 0.652839 0.804569
0.628169 0.780669 0.827826
0.854618 0.852246 0.813008
