bin/data/tex.cube
# Copyright: (C) Copyright 2016 by IWLTBAP
# Cannot be resold, shared or otherwise redistributed
# Website: http://luts.iwltbap.com
TITLE "IWLTBAP 8700 (Rec.709)"
LUT_3D_SIZE 32
0.061859 0.077515 0.085999
0.071737 0.083075 0.090154
0.088976 0.091892 0.092412
0.108156 0.097279 0.094569
0.130393 0.101208 0.094389
0.155292 0.107188 0.095591
0.182123 0.112098 0.095992
0.208266 0.115330 0.094947
0.232831 0.117885 0.093018
0.258920 0.120413 0.091104
0.282490 0.122019 0.089404
0.307659 0.123888 0.088069
0.332581 0.125587 0.086840
0.354427 0.127900 0.086064
0.375635 0.130844 0.085981
0.396818 0.134502 0.087067
0.421357 0.138920 0.089730
0.446982 0.143186 0.092911
0.474951 0.147725 0.096014
0.503939 0.151956 0.099497
0.533257 0.155977 0.102910
0.564078 0.159565 0.106423
0.594820 0.163444 0.110086
0.623486 0.166802 0.113275
0.653794 0.170534 0.117208
0.681904 0.175555 0.120844
0.709237 0.181447 0.124792
0.734287 0.187844 0.128026
0.756263 0.195591 0.130124
0.779997 0.205667 0.132021
0.802652 0.216445 0.133074
0.824524 0.226410 0.132507
0.064406 0.092016 0.093143
0.074117 0.095102 0.095195
0.090233 0.101058 0.095615
0.110083 0.106115 0.098113
0.133274 0.111254 0.097629
0.158280 0.116020 0.098851
0.186191 0.120538 0.097665
0.212939 0.124481 0.097313
0.238328 0.127642 0.095534
0.263866 0.129576 0.093096
0.288650 0.131325 0.090302
0.315218 0.133650 0.089379
0.340355 0.135822 0.088398
0.363697 0.138375 0.087044
0.386548 0.141255 0.086462
0.408276 0.145005 0.087628
0.432778 0.149524 0.090497
0.459792 0.154389 0.093674
0.488942 0.159650 0.096845
0.518235 0.164844 0.100403
0.549058 0.170235 0.104175
0.580141 0.175748 0.107597
0.610343 0.181187 0.110756
0.639040 0.186354 0.113456
0.668816 0.192555 0.116717
0.697096 0.200318 0.119713
0.724443 0.208377 0.121593
0.751228 0.217141 0.122577
0.775369 0.226325 0.122978
0.798150 0.235199 0.122332
0.819274 0.243811 0.120951
0.840232 0.253020 0.119323
0.067151 0.108731 0.099133
0.074923 0.112206 0.101454
0.091077 0.114029 0.096297
0.113377 0.117233 0.098285
0.139443 0.121236 0.099267
0.163843 0.125405 0.100219
0.190917 0.129888 0.099291
0.219599 0.134320 0.097985
0.247304 0.137067 0.094822
0.273442 0.139156 0.092435
0.298712 0.141341 0.090618
0.325088 0.143592 0.088946
0.349292 0.145599 0.087261
0.371571 0.148283 0.086294
0.395392 0.151897 0.086444
0.419639 0.156264 0.088397
0.445216 0.161363 0.090572
0.472512 0.166693 0.093633
0.502154 0.172506 0.097197
0.531740 0.178472 0.100581
0.563394 0.184966 0.104176
0.596588 0.192209 0.107286
0.626791 0.199341 0.109374
0.656601 0.206735 0.111308
0.686422 0.214479 0.113228
0.713974 0.222692 0.114136
0.740018 0.230917 0.114305
0.766322 0.239594 0.114604
0.790254 0.248252 0.114193
0.812368 0.257214 0.112459
0.832343 0.266115 0.110051
0.851779 0.275394 0.108566
0.069367 0.124274 0.100635
0.076563 0.128048 0.103592
0.089371 0.133208 0.101755
0.114073 0.131871 0.093397
0.147440 0.131188 0.096628
0.173047 0.134538 0.099737
0.200434 0.138820 0.099190
0.229767 0.142927 0.097161
0.257620 0.145661 0.094221
0.284884 0.147739 0.091011
0.310847 0.149488 0.088567
0.337819 0.152080 0.086732
0.360948 0.154542 0.085288
0.382442 0.158190 0.085431
0.406130 0.162833 0.086609
0.432193 0.168066 0.089034
0.459585 0.173537 0.091829
0.487292 0.179153 0.094638
0.516677 0.185069 0.098017
0.546991 0.191550 0.101306
0.576855 0.198287 0.104149
0.610072 0.206242 0.106749
0.641196 0.214292 0.108397
0.671854 0.222581 0.110207
0.701421 0.231238 0.111433
0.728619 0.239667 0.111563
0.754017 0.248439 0.110489
0.778858 0.257627 0.110112
0.802173 0.267099 0.108884
0.823034 0.276357 0.106990
0.841876 0.286271 0.104159
0.860009 0.295897 0.103646
0.071319 0.141139 0.102542
0.078055 0.143655 0.105015
0.087419 0.150021 0.103047
0.109628 0.152880 0.096943
0.150071 0.145130 0.092046
0.184567 0.144778 0.094901
0.213821 0.147711 0.095435
0.242599 0.150761 0.094575
0.269324 0.153361 0.092204
0.295744 0.155626 0.089401
0.321595 0.157698 0.086882
0.347158 0.160805 0.086086
0.370767 0.164097 0.085721
0.393738 0.167924 0.086989
0.418574 0.172755 0.088440
0.445511 0.178426 0.090648
0.472344 0.184003 0.093504
0.500527 0.189889 0.096509
0.530682 0.196397 0.099643
0.561148 0.203285 0.102559
0.591339 0.210418 0.105270
0.622403 0.218439 0.107277
0.653996 0.227023 0.108623
0.683833 0.235751 0.109880
0.713821 0.245153 0.110814
0.741697 0.254525 0.110885
0.766936 0.263866 0.110116
0.790159 0.273555 0.108674
0.811572 0.283568 0.106570
0.831172 0.293764 0.105781
0.849723 0.304069 0.104115
0.865859 0.315214 0.103211
0.072568 0.153466 0.101124
0.079526 0.158672 0.104886
0.087448 0.165346 0.104380
0.104041 0.171125 0.099557
0.148808 0.168804 0.091242
0.188106 0.158051 0.090093
0.224007 0.157254 0.089732
0.256317 0.158224 0.088731
0.283221 0.160189 0.087465
0.308644 0.162521 0.085718
0.332521 0.165701 0.085259
0.356261 0.169225 0.085158
0.380403 0.173284 0.086403
0.405494 0.177649 0.088709
0.432299 0.182811 0.090712
0.458854 0.188365 0.092962
0.484958 0.193906 0.095405
0.514091 0.200061 0.098253
0.544986 0.206991 0.101546
0.575106 0.214228 0.104203
0.605530 0.221953 0.106420
0.636527 0.230384 0.108156
0.666263 0.238914 0.109518
0.696107 0.248183 0.109954
0.724488 0.257647 0.110505
0.751661 0.267282 0.110309
0.776114 0.276955 0.109281
0.798456 0.287155 0.108683
0.818476 0.297392 0.106379
0.838013 0.308514 0.105982
0.854754 0.319361 0.104743
0.870483 0.330737 0.103131
0.073684 0.166129 0.100968
0.080816 0.172569 0.104704
0.088207 0.181561 0.104369
0.099086 0.187758 0.100053
0.141077 0.189961 0.092654
0.189160 0.183176 0.086545
0.226769 0.171021 0.086452
0.264035 0.168808 0.084020
0.295553 0.168308 0.082747
0.321925 0.170249 0.082354
0.346019 0.174194 0.084352
0.369276 0.178309 0.086420
0.393434 0.183099 0.088145
0.419231 0.187724 0.090505
0.446266 0.192918 0.092983
0.472264 0.198253 0.095336
0.498704 0.203809 0.097528
0.526995 0.209991 0.100441
0.557932 0.216840 0.103237
0.587791 0.224193 0.105510
0.618643 0.232321 0.107376
0.650204 0.241203 0.108975
0.679158 0.249926 0.109930
0.707845 0.259306 0.110177
0.735017 0.269126 0.110863
0.760129 0.278640 0.109871
0.783513 0.288925 0.108521
0.805932 0.299626 0.107577
0.824830 0.310420 0.106999
0.843652 0.321816 0.105580
0.859117 0.333409 0.104239
0.874389 0.346047 0.102862
0.074780 0.180263 0.100267
0.081863 0.186176 0.103853
0.089218 0.196815 0.105502
0.097151 0.203860 0.099173
0.130311 0.208806 0.093742
0.187212 0.206753 0.084981
0.228443 0.198534 0.083240
0.267512 0.185103 0.083004
0.300482 0.181082 0.081580
0.330005 0.180677 0.082438
0.358482 0.183644 0.084955
0.382854 0.187458 0.087707
0.407295 0.192332 0.089976
0.432985 0.197176 0.092462
0.458903 0.202174 0.094885
0.485036 0.207567 0.097117
0.511524 0.213451 0.099540
0.539468 0.219361 0.102177
0.570023 0.226268 0.104788
0.599157 0.233749 0.106881
0.629605 0.241603 0.108521
0.661875 0.251067 0.109602
0.690616 0.260277 0.110145
0.717699 0.269579 0.110762
0.744752 0.279576 0.111445
0.768323 0.289738 0.110511
0.790942 0.300376 0.109094
0.812101 0.311275 0.107184
0.830578 0.322503 0.107219
0.848480 0.334621 0.105297
0.864003 0.347056 0.103954
0.878843 0.359641 0.103463
0.075733 0.192948 0.100557
0.082737 0.196746 0.103768
0.089980 0.207826 0.105381
0.096206 0.218616 0.097205
0.125605 0.225602 0.091430
0.178489 0.225519 0.086213
0.229178 0.222305 0.083148
0.271489 0.210389 0.084613
0.306418 0.195979 0.082693
0.338152 0.192870 0.083024
0.369388 0.193968 0.085440
0.396869 0.196921 0.088476
0.421502 0.201146 0.091393
0.445940 0.205808 0.093675
0.471682 0.211074 0.096429
0.498150 0.216787 0.098802
0.524165 0.222484 0.101287
0.551281 0.228728 0.104027
0.581660 0.235910 0.106147
0.610329 0.243311 0.108045
0.640073 0.251355 0.109878
0.671224 0.260945 0.110557
0.699831 0.270498 0.111011
0.726182 0.279775 0.111402
0.752757 0.289997 0.111634
0.776589 0.300233 0.110383
0.797836 0.311294 0.109405
0.817959 0.322740 0.107652
0.836436 0.334325 0.106854
0.853422 0.347504 0.105257
0.868512 0.360100 0.103967
0.883033 0.372909 0.103760
0.076496 0.204601 0.100838
0.083330 0.209494 0.103007
0.090544 0.218715 0.105362
0.096374 0.232086 0.096304
0.123316 0.240554 0.088777
0.173813 0.241902 0.086214
0.228631 0.243039 0.083933
0.270550 0.237622 0.087727
0.312098 0.220112 0.085936
0.346044 0.208303 0.084226
0.378135 0.205910 0.085902
0.407794 0.207446 0.088979
0.434188 0.210593 0.092269
0.458668 0.214814 0.094924
0.484754 0.220049 0.097541
0.510712 0.225688 0.100375
0.536990 0.231546 0.103158
0.564128 0.237925 0.105414
0.593129 0.245590 0.107596
0.621384 0.253376 0.109405
0.651241 0.261748 0.110796
0.681554 0.271221 0.111264
0.708866 0.280507 0.111504
0.734695 0.290419 0.111775
0.760435 0.300730 0.111475
0.783406 0.311221 0.110557
0.804542 0.322235 0.108826
0.823396 0.334746 0.107925
0.841571 0.346384 0.106495
0.857956 0.359634 0.105352
0.872550 0.372432 0.103978
0.886368 0.386396 0.104075
0.076973 0.217437 0.100217
0.083888 0.222012 0.102115
0.091326 0.228923 0.105747
0.096856 0.244320 0.096413
0.121264 0.255138 0.087809
0.172880 0.256640 0.086451
0.226389 0.260207 0.084468
0.271548 0.261533 0.090050
0.311634 0.249111 0.090758
0.354522 0.231930 0.086825
0.385308 0.221049 0.086379
0.416263 0.219778 0.089030
0.445322 0.221359 0.092501
0.471559 0.224661 0.095566
0.498102 0.229429 0.098513
0.523151 0.234808 0.101751
0.549248 0.240823 0.104570
0.576605 0.247392 0.106852
0.605226 0.255080 0.108951
0.632831 0.263023 0.110345
0.662073 0.271620 0.111354
0.691486 0.281164 0.111755
0.717631 0.290266 0.111788
0.742788 0.300541 0.111607
0.767497 0.311244 0.111301
0.789212 0.322004 0.110922
0.810088 0.333498 0.108616
0.829401 0.345960 0.107448
0.845542 0.357955 0.106811
0.861935 0.371348 0.105524
0.875692 0.384393 0.104649
0.889196 0.398600 0.104813
0.077545 0.230172 0.099591
0.084718 0.235111 0.101954
0.092176 0.241496 0.105679
0.097955 0.254526 0.096885
0.121243 0.265609 0.089103
0.173864 0.268838 0.086958
0.224146 0.275007 0.085534
0.273930 0.281012 0.091386
0.311527 0.279406 0.095573
0.352400 0.262828 0.093047
0.395090 0.244840 0.088328
0.424660 0.234175 0.088895
0.454282 0.233538 0.092407
0.482290 0.235467 0.095985
0.509862 0.239261 0.099285
0.535692 0.244070 0.102386
0.561200 0.249755 0.105199
0.587863 0.256357 0.107679
0.616273 0.264018 0.109465
0.643528 0.272111 0.110979
0.671142 0.280944 0.112092
0.700211 0.290967 0.112082
0.725149 0.299934 0.112360
0.749789 0.310567 0.111798
0.773860 0.321465 0.110979
0.794845 0.332809 0.110483
0.815051 0.345065 0.108904
0.834134 0.357308 0.107641
0.849358 0.369563 0.107233
0.865392 0.383693 0.105986
0.878216 0.396914 0.105594
0.892341 0.410393 0.105420
0.078491 0.241843 0.099743
0.085790 0.247794 0.102173
0.093327 0.254063 0.105659
0.099394 0.266210 0.097584
0.124189 0.276421 0.090407
0.175931 0.281861 0.088165
0.223915 0.288966 0.087179
0.274391 0.297125 0.091148
0.314791 0.301061 0.097922
0.350071 0.294978 0.099804
0.397512 0.274042 0.094209
0.435208 0.256770 0.090181
0.462939 0.247895 0.091752
0.490907 0.247802 0.095308
0.520154 0.250441 0.099246
0.548479 0.254582 0.102970
0.573971 0.259848 0.106041
0.599657 0.265979 0.108293
0.626499 0.273597 0.110235
0.653433 0.281541 0.111179
0.680134 0.290465 0.112103
0.708674 0.300714 0.112258
0.732784 0.309953 0.112603
0.756215 0.321068 0.111996
0.779347 0.332026 0.110551
0.800014 0.343912 0.109780
0.819547 0.356766 0.108507
0.838214 0.369395 0.107413
0.853951 0.381912 0.107046
0.868376 0.396622 0.106495
0.880159 0.410625 0.106947
0.895448 0.423966 0.106979
0.079602 0.254162 0.099874
0.086927 0.259910 0.102011
0.094759 0.267232 0.105912
0.100910 0.279108 0.097944
0.128274 0.287435 0.091978
0.178045 0.294085 0.090066
0.224697 0.302520 0.089061
0.273547 0.311960 0.090958
0.318162 0.319534 0.099276
0.352399 0.319905 0.102945
0.392025 0.308995 0.102270
0.440100 0.286635 0.095361
0.472489 0.270604 0.092308
0.500599 0.261951 0.094633
0.529494 0.262807 0.098556
0.559077 0.266248 0.102590
0.584757 0.270515 0.106088
0.611229 0.276158 0.108469
0.638023 0.283714 0.110180
0.663930 0.291698 0.110885
0.690001 0.300777 0.111798
0.716778 0.310773 0.112078
0.740942 0.320901 0.112547
0.763840 0.332578 0.111580
0.785372 0.343895 0.110359
0.805893 0.355632 0.109278
0.823743 0.369117 0.108286
0.841435 0.382458 0.107886
0.857307 0.395455 0.107483
0.871446 0.410280 0.107287
0.883139 0.424473 0.108235
0.898319 0.437858 0.109205
0.080886 0.267846 0.099901
0.088345 0.273019 0.102159
0.096135 0.280719 0.106027
0.102607 0.291904 0.098629
0.132322 0.298680 0.093724
0.181228 0.306819 0.092254
0.227335 0.316550 0.091280
0.272647 0.327142 0.091693
0.319732 0.337113 0.098316
0.358430 0.340379 0.105557
0.392387 0.340328 0.107298
0.430806 0.326829 0.105011
0.478255 0.304330 0.097409
0.510996 0.287719 0.094868
0.539512 0.278569 0.097475
0.568425 0.279781 0.101354
0.594691 0.282935 0.105373
0.622354 0.288176 0.108022
0.649949 0.295126 0.109791
0.675274 0.302753 0.110719
0.700351 0.311740 0.111589
0.724852 0.321679 0.111579
0.748870 0.332275 0.111926
0.771307 0.344198 0.110948
0.791925 0.356367 0.110301
0.811271 0.368188 0.109597
0.828793 0.381810 0.108637
0.844906 0.395578 0.108707
0.860170 0.409523 0.108411
0.874331 0.424522 0.109217
0.887072 0.438007 0.110065
0.901791 0.451927 0.111671
0.082701 0.280667 0.101344
0.089906 0.287098 0.102843
0.097548 0.294278 0.105874
0.104225 0.304855 0.100249
0.134577 0.313541 0.095647
0.184995 0.322075 0.094580
0.230622 0.332190 0.093534
0.273595 0.342389 0.092953
0.319144 0.354342 0.096667
0.362771 0.361355 0.105592
0.397759 0.363375 0.110765
0.428747 0.361882 0.111483
0.467331 0.347097 0.108137
0.517258 0.322992 0.099587
0.550844 0.305871 0.096781
0.577260 0.296660 0.099672
0.604376 0.297851 0.102989
0.632067 0.301694 0.106694
0.660069 0.307089 0.108808
0.685444 0.314013 0.110510
0.709850 0.322634 0.111399
0.733760 0.332976 0.111399
0.756107 0.343953 0.111166
0.777772 0.356366 0.110623
0.798091 0.368979 0.109945
0.816294 0.381588 0.109771
0.833290 0.395443 0.109215
0.848333 0.409537 0.109695
0.863035 0.424646 0.109879
0.876813 0.439354 0.111507
0.891005 0.452731 0.112527
0.905669 0.467491 0.114811
0.084334 0.292717 0.102181
0.091518 0.300478 0.103491
0.099147 0.308794 0.106247
0.106399 0.317365 0.102552
0.139128 0.326794 0.097947
0.188843 0.337538 0.096701
0.233386 0.348136 0.095956
0.274671 0.357781 0.095103
0.319439 0.371008 0.096542
0.365606 0.381038 0.104658
0.404359 0.384849 0.112810
0.433901 0.387658 0.115512
0.466269 0.385263 0.115585
0.507428 0.368992 0.111117
0.556471 0.342994 0.102143
0.588373 0.325878 0.098985
0.612543 0.317778 0.101012
0.639975 0.318414 0.104077
0.668383 0.321908 0.107098
0.694340 0.327949 0.109284
0.719630 0.335222 0.110623
0.743199 0.345145 0.111031
0.763907 0.356302 0.110528
0.784404 0.369351 0.110455
0.803760 0.382748 0.109922
0.820526 0.396070 0.110411
0.836846 0.410713 0.109888
0.851969 0.425558 0.110988
0.866185 0.440729 0.112130
0.879708 0.455432 0.113984
0.894390 0.469955 0.115620
0.909439 0.483942 0.117603
0.086357 0.307296 0.103919
0.093475 0.315912 0.104935
0.100988 0.325062 0.106823
0.108983 0.332474 0.104581
0.144526 0.342993 0.100241
0.194042 0.354566 0.098868
0.237850 0.365230 0.098105
0.278846 0.375737 0.097420
0.321582 0.388504 0.097757
0.368134 0.400448 0.103605
0.411051 0.407857 0.113196
0.441429 0.411045 0.118274
0.468586 0.414678 0.119794
0.503677 0.413390 0.119853
0.548729 0.393829 0.114326
0.593048 0.369499 0.105597
0.621450 0.351360 0.101587
0.647625 0.340772 0.102038
0.676855 0.342018 0.104233
0.702732 0.345914 0.106570
0.728004 0.351889 0.108776
0.751655 0.360177 0.109515
0.772580 0.370485 0.109773
0.791573 0.383829 0.110189
0.810095 0.397256 0.109833
0.825423 0.411862 0.110851
0.841167 0.427779 0.110950
0.855851 0.443728 0.112508
0.869475 0.457859 0.114694
0.883231 0.473240 0.117115
0.897453 0.487637 0.119486
0.911709 0.500157 0.121728
0.088778 0.324343 0.106491
0.095787 0.332789 0.107061
0.103147 0.341593 0.108108
0.112904 0.350334 0.105958
0.150489 0.361315 0.102287
0.200958 0.372795 0.101556
0.243757 0.383313 0.100633
0.284533 0.394955 0.099973
0.325332 0.406735 0.099462
0.369944 0.420712 0.102273
0.414740 0.430723 0.111872
0.450759 0.435598 0.119446
0.478555 0.440629 0.122696
0.503396 0.445871 0.124148
0.540321 0.444168 0.124871
0.584429 0.427631 0.119994
0.625363 0.403187 0.110851
0.655194 0.381672 0.104732
0.682848 0.369510 0.103176
0.709005 0.369791 0.104379
0.734395 0.372970 0.106314
0.758497 0.379702 0.107794
0.779874 0.387707 0.108904
0.798237 0.399556 0.109746
0.815550 0.413304 0.110499
0.830754 0.427968 0.111236
0.845467 0.444670 0.112727
0.858952 0.460659 0.114956
0.872568 0.475484 0.117669
0.887358 0.489955 0.120281
0.900922 0.503707 0.123528
0.914658 0.517043 0.125991
0.091282 0.339256 0.109062
0.098237 0.349014 0.109242
0.105555 0.358949 0.109756
0.116122 0.369597 0.107488
0.158149 0.380283 0.104839
0.208635 0.391554 0.104132
0.250344 0.402792 0.103129
0.291229 0.415394 0.102511
0.329434 0.427210 0.101690
0.372404 0.441011 0.102680
0.417614 0.453246 0.109842
0.456359 0.459942 0.118812
0.488026 0.465364 0.124177
0.514096 0.471279 0.127174
0.542089 0.476885 0.129065
0.573663 0.476431 0.130026
0.615656 0.462546 0.125941
0.657625 0.437051 0.116086
0.687797 0.414461 0.108379
0.712306 0.401324 0.104945
0.738561 0.399776 0.105145
0.764170 0.402866 0.105917
0.784814 0.410998 0.107505
0.803108 0.419981 0.109102
0.820175 0.431429 0.110743
0.835650 0.445006 0.112218
0.849607 0.461931 0.114528
0.862305 0.477700 0.117630
0.875961 0.492795 0.121569
0.890812 0.506547 0.124823
0.904903 0.520320 0.126901
0.918282 0.535275 0.130244
0.094015 0.357270 0.111776
0.100991 0.367095 0.111943
0.108240 0.378549 0.111859
0.120589 0.390181 0.109732
0.166373 0.399716 0.107517
0.217555 0.411850 0.106690
0.258487 0.423885 0.105911
0.298544 0.437342 0.104936
0.335240 0.449225 0.104457
0.376310 0.461792 0.104381
0.421237 0.475434 0.108733
0.461302 0.485737 0.117194
0.494938 0.491985 0.124098
0.525505 0.498465 0.128522
0.551131 0.505823 0.131258
0.575977 0.512539 0.133325
0.604740 0.511443 0.134524
0.645697 0.496351 0.131376
0.688570 0.471135 0.121757
0.716158 0.450187 0.113741
0.740215 0.436012 0.109312
0.765967 0.432897 0.107770
0.788488 0.437317 0.108100
0.805740 0.446458 0.109690
0.823831 0.454824 0.111736
0.839678 0.466896 0.113846
0.852341 0.481083 0.117739
0.865546 0.497232 0.120844
0.879414 0.511681 0.124966
0.893853 0.525132 0.128412
0.907212 0.539042 0.131581
0.920739 0.552876 0.134485
0.097042 0.377409 0.114721
0.104081 0.388570 0.114750
0.111679 0.399792 0.114608
0.132643 0.411985 0.111962
0.178586 0.421747 0.110308
0.227462 0.435511 0.109295
0.269088 0.448236 0.108387
0.307131 0.460466 0.107862
0.344123 0.472833 0.107054
0.383055 0.484625 0.107173
0.424477 0.498319 0.108851
0.464036 0.511255 0.114413
0.499525 0.519562 0.122380
0.533134 0.526237 0.128871
0.562366 0.533717 0.132636
0.584394 0.541736 0.134581
0.608304 0.547877 0.136892
0.636236 0.547110 0.138787
0.674454 0.531434 0.136736
0.714962 0.508703 0.128205
0.742159 0.487898 0.120010
0.765413 0.475193 0.115653
0.788700 0.472060 0.113266
0.807234 0.475434 0.113444
0.824176 0.483512 0.115752
0.840703 0.492967 0.117773
0.853938 0.504418 0.121306
0.867875 0.519432 0.124908
0.882295 0.532570 0.128506
0.897033 0.545048 0.131924
0.910371 0.558087 0.135238
0.922669 0.571042 0.138500
0.100173 0.396723 0.117748
0.107237 0.408671 0.117728
0.116182 0.422612 0.117161
0.145437 0.433749 0.113992
0.191877 0.442805 0.113150
0.238973 0.458139 0.112166
0.278887 0.470668 0.111239
0.315909 0.483421 0.110678
0.353019 0.495765 0.110158
0.391384 0.508141 0.109720
0.429597 0.520750 0.109732
0.466917 0.534412 0.112759
0.503317 0.544983 0.119843
0.537878 0.552932 0.127484
0.568532 0.560448 0.132931
0.593842 0.567413 0.136202
0.616164 0.575481 0.138402
0.640914 0.583443 0.140933
0.667419 0.583135 0.142821
0.701468 0.568489 0.141826
0.738007 0.545244 0.135245
0.765843 0.524129 0.126943
0.786916 0.513559 0.122529
0.806618 0.510259 0.120505
0.825201 0.513734 0.120435
0.840654 0.520919 0.122720
0.855080 0.531574 0.125521
0.870577 0.542641 0.128463
0.885427 0.555393 0.132215
0.900542 0.566774 0.135355
0.913069 0.579295 0.139095
0.925182 0.591479 0.142664
0.103608 0.417268 0.120890
0.110686 0.429775 0.120802
0.119758 0.446513 0.120032
0.157244 0.457158 0.116633
0.204743 0.466638 0.116072
0.249903 0.481585 0.115307
0.288921 0.494779 0.114708
0.326347 0.507888 0.114120
0.363716 0.520703 0.113077
0.401390 0.532582 0.112510
0.435624 0.543992 0.112326
0.472306 0.557082 0.113160
0.508259 0.569565 0.117912
0.543537 0.579707 0.125622
0.574288 0.587345 0.132206
0.602239 0.594241 0.137095
0.625887 0.601868 0.140042
0.647880 0.610149 0.142040
0.671920 0.617826 0.144451
0.696642 0.618280 0.146744
0.726729 0.601822 0.146559
0.760150 0.579077 0.141104
0.785050 0.560936 0.133823
0.803872 0.550584 0.130069
0.824229 0.548080 0.127471
0.841075 0.551484 0.127682
0.856370 0.560051 0.129969
0.872377 0.568301 0.132636
0.888201 0.578975 0.136403
0.903774 0.590003 0.139583
0.916097 0.601294 0.143104
0.927590 0.612770 0.146782
0.107259 0.438878 0.124123
0.114500 0.452132 0.123943
0.126642 0.469920 0.122580
0.171089 0.481779 0.119036
0.218181 0.492596 0.119014
0.261007 0.505410 0.118388
0.300888 0.519676 0.117839
0.338661 0.532465 0.117034
0.374406 0.545644 0.116183
0.410168 0.556662 0.115842
0.443446 0.568459 0.115492
0.478532 0.580968 0.115885
0.513061 0.593107 0.118235
0.548699 0.605247 0.123397
0.579839 0.613244 0.130597
0.608504 0.620043 0.136733
0.635697 0.627809 0.141310
0.657912 0.635991 0.143605
0.677283 0.643440 0.145417
0.700121 0.651655 0.148328
0.722472 0.650733 0.150361
0.749659 0.635051 0.150873
0.778375 0.613615 0.147545
0.803143 0.595374 0.140464
0.821946 0.586344 0.136376
0.839664 0.584914 0.135621
0.856876 0.587421 0.135382
0.874156 0.594067 0.137040
0.889854 0.602761 0.139941
0.906405 0.611973 0.143064
0.918231 0.622638 0.147343
0.929145 0.634348 0.150527
0.111109 0.460541 0.127336
0.118579 0.476292 0.126834
0.135261 0.495159 0.123890
0.187133 0.506763 0.122048
0.233989 0.517277 0.122176
0.275563 0.530616 0.121296
0.314221 0.543223 0.120985
0.350968 0.556342 0.120203
0.385923 0.569286 0.119649
0.420636 0.581012 0.119618
0.452938 0.592156 0.119576
0.486000 0.603945 0.119030
0.520066 0.614865 0.119608
0.554373 0.628190 0.122313
0.585767 0.637516 0.129387
0.614197 0.643817 0.136361
0.641448 0.651558 0.141601
0.666642 0.660383 0.145028
0.687268 0.667411 0.147443
0.705483 0.674733 0.149482
0.727837 0.683278 0.151751
0.748535 0.683205 0.154055
0.773221 0.668111 0.154713
0.799775 0.644797 0.152054
0.821815 0.628661 0.146466
0.840822 0.621707 0.142949
0.858643 0.619199 0.141994
0.875725 0.620589 0.141816
0.891273 0.626749 0.143971
0.907225 0.633982 0.146446
0.919731 0.643407 0.150634
0.931071 0.654682 0.154918
0.115144 0.483307 0.130685
0.123132 0.502245 0.129899
0.147778 0.520686 0.126579
0.206213 0.531201 0.125151
0.251275 0.542247 0.125585
0.291250 0.555878 0.124615
0.328861 0.568220 0.124207
0.364007 0.581601 0.123066
0.398895 0.594343 0.122957
0.434494 0.605300 0.123151
0.465597 0.616246 0.122746
0.497461 0.627337 0.121766
0.528241 0.638578 0.122119
0.560565 0.650312 0.123258
0.591834 0.659871 0.128689
0.619487 0.667266 0.135112
0.646599 0.675048 0.140945
0.672759 0.683295 0.145900
0.695557 0.690983 0.149472
0.713820 0.698562 0.151096
0.733929 0.707332 0.153248
0.755435 0.716863 0.155307
0.774676 0.715352 0.157953
0.797669 0.700620 0.158957
0.820828 0.677724 0.156759
0.841224 0.661042 0.152263
0.859750 0.654087 0.149603
0.876360 0.652838 0.148815
0.892611 0.653864 0.148731
0.907763 0.659420 0.150106
0.920867 0.665980 0.153525
0.933311 0.674685 0.157556
0.119601 0.507617 0.134103
0.128907 0.527806 0.133252
0.171781 0.545694 0.129149
0.225500 0.556643 0.128489
0.268452 0.568139 0.128475
0.307638 0.581418 0.128245
0.344289 0.593964 0.127519
0.379866 0.606178 0.126421
0.413806 0.617214 0.126252
0.448196 0.629054 0.125813
0.477853 0.639827 0.125671
0.507658 0.650654 0.124913
0.537650 0.660127 0.125447
0.568927 0.671725 0.126209
0.598582 0.682198 0.128860
0.625617 0.690344 0.134039
0.651861 0.697240 0.140486
0.678611 0.704982 0.146198
