bin/data/tex.cube
# Copyright: (C) Copyright 2016 by IWLTBAP
# Cannot be resold, shared or otherwise redistributed
# Website: http://luts.iwltbap.com
TITLE "IWLTBAP 8700 (Rec.709)"
LUT_3D_SIZE 8
DOMAIN_MIN 0.000000 0.000000 0.000000
DOMAIN_MAX 0.903226 0.903226 0.903226
0.061859 0.077515 0.085999
0.130393 0.101208 0.094389
0.232831 0.117885 0.093018
0.332581 0.125587 0.086840
0.421357 0.138920 0.089730
0.533257 0.155977 0.102910
0.653794 0.170534 0.117208
0.756263 0.195591 0.130124
0.071319 0.141139 0.102542
0.150071 0.145130 0.092046
0.269324 0.153361 0.092204
0.370767 0.164097 0.085721
0.472344 0.184003 0.093504
0.591339 0.210418 0.105270
0.713821 0.245153 0.110814
0.811572 0.283568 0.106570
0.075733 0.192948 0.100557
0.125605 0.225602 0.091430
0.306418 0.195979 0.082693
0.421502 0.201146 0.091393
0.524165 0.222484 0.101287
0.640073 0.251355 0.109878
0.752757 0.289997 0.111634
0.836436 0.334325 0.106854
0.078491 0.241843 0.099743
0.124189 0.276421 0.090407
0.314791 0.301061 0.097922
0.462939 0.247895 0.091752
0.573971 0.259848 0.106041
0.680134 0.290465 0.112103
0.779347 0.332026 0.110551
0.853951 0.381912 0.107046
0.084334 0.292717 0.102181
0.139128 0.326794 0.097947
0.319439 0.371008 0.096542
0.466269 0.385263 0.115585
0.612543 0.317778 0.101012
0.719630 0.335222 0.110623
0.803760 0.382748 0.109922
0.866185 0.440729 0.112130
0.094015 0.357270 0.111776
0.166373 0.399716 0.107517
0.335240 0.449225 0.104457
0.494938 0.491985 0.124098
0.604740 0.511443 0.134524
0.740215 0.436012 0.109312
0.823831 0.454824 0.111736
0.879414 0.511681 0.124966
0.107259 0.438878 0.124123
0.218181 0.492596 0.119014
0.374406 0.545644 0.116183
0.513061 0.593107 0.118235
0.635697 0.627809 0.141310
0.722472 0.650733 0.150361
0.821946 0.586344 0.136376
0.889854 0.602761 0.139941
0.124386 0.531549 0.138189
0.288307 0.592480 0.131881
0.430645 0.640713 0.129779
0.547843 0.681398 0.128766
0.657894 0.717067 0.141017
0.753967 0.752003 0.158321
0.820519 0.772020 0.167040
0.893281 0.715239 0.160452
0.061984 0.096057 0.136999
0.104072 0.111984 0.137951
0.203353 0.122678 0.139448
0.284236 0.139900 0.147961
0.380690 0.155483 0.152382
0.528096 0.170959 0.149526
0.659475 0.195486 0.146016
0.773970 0.228406 0.147764
0.068405 0.130720 0.150351
0.108953 0.154310 0.167797
0.236789 0.182731 0.170039
0.352349 0.194174 0.161965
0.479928 0.202857 0.149728
0.615276 0.214680 0.132824
0.735402 0.248113 0.132803
0.826754 0.287601 0.126296
0.073113 0.230499 0.204109
0.107691 0.232939 0.177354
0.277147 0.226697 0.142470
0.384803 0.242414 0.163116
0.512162 0.256782 0.143470
0.641574 0.284758 0.127397
0.755422 0.336879 0.127473
0.835164 0.396977 0.135273
0.080524 0.295110 0.214197
0.112563 0.286841 0.175103
0.236756 0.321576 0.149992
0.433317 0.288922 0.124891
0.556148 0.293951 0.127880
0.672018 0.335100 0.131892
0.773811 0.393857 0.136515
0.849991 0.454832 0.145984
0.086008 0.349498 0.209116
0.119464 0.343649 0.175587
0.227702 0.393048 0.153149
0.427592 0.420793 0.135353
0.592312 0.370355 0.132751
0.708718 0.391177 0.137915
0.792183 0.458596 0.151071
0.862694 0.514201 0.160581
0.091941 0.409434 0.201428
0.129894 0.412712 0.182374
0.245180 0.480374 0.158357
0.420127 0.506710 0.137137
0.580421 0.548821 0.154792
0.725837 0.504583 0.152783
0.815620 0.527138 0.160555
0.876376 0.582084 0.176911
0.103729 0.483436 0.211427
0.146286 0.497426 0.196668
0.287742 0.579685 0.176490
0.447278 0.601524 0.170006
0.601761 0.651107 0.150742
0.718131 0.684680 0.171388
0.823663 0.641433 0.175537
0.889482 0.654231 0.184057
0.126234 0.563246 0.251903
0.170991 0.628044 0.216704
0.367462 0.671835 0.216339
0.502970 0.690161 0.229497
0.625277 0.727772 0.217706
0.745407 0.769517 0.176526
0.818816 0.795349 0.189544
0.894284 0.750840 0.190486
0.060907 0.116918 0.191943
0.086198 0.127794 0.189427
0.149095 0.142432 0.188033
0.262325 0.146626 0.177041
0.347399 0.164607 0.184059
0.470647 0.191435 0.196537
0.628498 0.222579 0.206283
0.768797 0.267220 0.210514
0.066899 0.146617 0.208574
0.094477 0.168343 0.233260
0.155655 0.188984 0.225157
0.296222 0.213225 0.222557
0.403715 0.240159 0.232336
0.563579 0.265357 0.228524
0.716237 0.302491 0.226663
0.820343 0.342053 0.227245
0.073563 0.188627 0.222558
0.101780 0.215624 0.249906
0.156410 0.241980 0.267132
0.334222 0.283400 0.267869
0.474779 0.301025 0.254009
0.636294 0.325933 0.237899
0.760128 0.370314 0.240703
0.849011 0.411833 0.241490
0.087322 0.287380 0.293712
0.107578 0.322997 0.318774
0.151638 0.338913 0.291336
0.380097 0.339636 0.215813
0.506813 0.354500 0.255907
0.648927 0.399446 0.250996
0.765104 0.457354 0.258591
0.847315 0.508322 0.269262
0.101688 0.397489 0.359959
0.120058 0.414505 0.354775
0.156906 0.400178 0.281471
0.324594 0.439752 0.240909
0.560253 0.423705 0.181262
0.682821 0.460754 0.244702
0.784748 0.518924 0.252922
0.859676 0.571056 0.253134
0.114821 0.490633 0.399488
0.131343 0.487781 0.348674
0.168619 0.476225 0.286084
0.325271 0.532342 0.261109
0.545283 0.574532 0.221344
0.710183 0.555025 0.190266
0.808120 0.583966 0.220063
0.869442 0.632808 0.243553
0.124913 0.562123 0.405966
0.146183 0.553565 0.340617
0.191498 0.576231 0.294263
0.372854 0.629034 0.290872
0.554322 0.657366 0.300013
0.713881 0.709309 0.217520
0.822251 0.677874 0.206117
0.883465 0.692431 0.223908
0.136024 0.621394 0.420893
0.170526 0.618808 0.367145
0.282361 0.681996 0.326738
0.459308 0.712871 0.334292
0.599310 0.735650 0.347706
0.729829 0.780387 0.300469
0.816555 0.809325 0.234883
0.895251 0.776410 0.214318
0.066079 0.140402 0.242409
0.083733 0.147421 0.236871
0.107605 0.158893 0.237206
0.184301 0.172141 0.231298
0.316328 0.177390 0.212901
0.447887 0.199091 0.219603
0.599397 0.236516 0.235524
0.733223 0.291490 0.261051
0.073017 0.170252 0.262947
0.092923 0.190793 0.291034
0.120519 0.201855 0.283590
0.202862 0.227940 0.277434
0.370710 0.247563 0.263792
0.515435 0.280863 0.272344
0.664636 0.333400 0.298091
0.789396 0.386393 0.317844
0.079196 0.201867 0.282616
0.099544 0.225649 0.309808
0.134361 0.249583 0.337265
0.226164 0.278641 0.327947
0.418190 0.328012 0.325544
0.574119 0.367423 0.332828
0.721482 0.416852 0.348928
0.825015 0.458136 0.360726
0.085427 0.240194 0.296223
0.105900 0.266035 0.324420
0.143509 0.301918 0.359089
0.227580 0.343632 0.380884
0.461037 0.403692 0.378306
0.624841 0.439677 0.376248
0.756701 0.484074 0.386246
0.844860 0.525075 0.398949
0.100507 0.332496 0.366486
0.122087 0.382623 0.411017
0.154795 0.439769 0.450329
0.208049 0.463304 0.422181
0.508302 0.482630 0.323262
0.645739 0.514184 0.395706
0.765487 0.565283 0.405611
0.846766 0.611772 0.420310
0.122775 0.492490 0.492486
0.140682 0.528388 0.514099
0.173366 0.562233 0.513670
0.231710 0.544594 0.418159
0.475066 0.591362 0.370423
0.696936 0.595055 0.306459
0.792819 0.628221 0.395629
0.861814 0.670556 0.408619
0.142214 0.619674 0.588992
0.156550 0.628758 0.574382
0.188832 0.618932 0.489279
0.302902 0.630069 0.419957
0.514168 0.678212 0.409689
0.699434 0.723753 0.372232
0.818978 0.708581 0.253217
0.879562 0.725130 0.352166
0.156054 0.690949 0.622769
0.172320 0.684392 0.568763
0.213296 0.669161 0.489850
0.412699 0.719025 0.439640
0.579890 0.754348 0.443271
0.712451 0.787581 0.431524
0.812113 0.818519 0.378540
0.895224 0.796297 0.237765
0.072951 0.165320 0.297378
0.087359 0.171714 0.290580
0.105559 0.179679 0.284695
0.130261 0.191753 0.287081
0.223322 0.202126 0.273831
0.416611 0.214481 0.247613
0.577445 0.242765 0.256591
0.713713 0.299816 0.285863
0.080142 0.196710 0.320849
0.098102 0.217639 0.354404
0.119001 0.227498 0.348795
0.143886 0.235337 0.336806
0.266989 0.267960 0.328178
0.481837 0.292593 0.306012
0.638818 0.339639 0.324525
0.758821 0.403593 0.367464
0.085882 0.221850 0.341805
0.104874 0.247615 0.376611
0.131583 0.274826 0.412424
0.160455 0.284843 0.402316
0.315349 0.337686 0.390338
0.536095 0.376971 0.372562
0.678192 0.435234 0.408606
0.792935 0.487172 0.442875
0.091474 0.252311 0.362707
0.110555 0.278637 0.395959
0.139864 0.312469 0.435060
0.177592 0.339003 0.462870
0.354631 0.402543 0.450649
0.577218 0.464069 0.447555
0.716295 0.517353 0.479674
0.822304 0.559645 0.501119
0.098448 0.294834 0.381815
0.118091 0.325681 0.415549
0.149660 0.367111 0.459769
0.190183 0.407309 0.491558
0.379405 0.489660 0.521039
0.620421 0.556627 0.521595
0.753976 0.594844 0.531508
0.843966 0.628703 0.542109
0.117595 0.403435 0.464014
0.140205 0.458371 0.516108
0.160657 0.504354 0.555839
0.209426 0.572983 0.601074
0.388822 0.610192 0.556453
0.668079 0.635596 0.473927
0.774623 0.665787 0.536897
0.853183 0.703261 0.542821
0.145182 0.582420 0.614062
0.163595 0.616731 0.638980
0.186806 0.651163 0.663204
0.234873 0.684493 0.663664
0.475555 0.685763 0.542261
0.676529 0.730831 0.517638
0.808993 0.734116 0.436844
0.873052 0.752895 0.509327
0.165317 0.697384 0.705579
0.181482 0.717361 0.718625
0.215379 0.750278 0.724245
0.256662 0.731511 0.635193
0.562198 0.768788 0.539550
0.703466 0.794766 0.545663
0.808556 0.827524 0.495529
0.891911 0.812983 0.351103
0.081011 0.196687 0.371056
0.095220 0.203757 0.360823
0.106219 0.207487 0.352968
0.124559 0.215589 0.346887
0.155481 0.230869 0.350319
0.321902 0.238355 0.316244
0.546608 0.265648 0.294881
0.692673 0.308715 0.313264
0.088428 0.229720 0.398456
0.106319 0.252630 0.437785
0.117902 0.257097 0.427766
0.141240 0.269454 0.423910
0.176002 0.281655 0.412212
0.412735 0.317870 0.363833
0.603635 0.355894 0.364387
0.740932 0.408659 0.393934
0.094266 0.255656 0.421455
0.113204 0.283285 0.461766
0.129173 0.304777 0.495082
0.157700 0.321342 0.496373
0.199597 0.335652 0.478373
0.474422 0.402894 0.438529
0.651027 0.440762 0.437112
0.773055 0.497363 0.483683
0.099582 0.279370 0.442189
0.119097 0.310060 0.482777
0.136617 0.335686 0.516188
0.173828 0.372553 0.557652
0.223574 0.391819 0.544382
0.522666 0.481014 0.510641
0.687698 0.522562 0.518651
0.796283 0.577035 0.567219
0.105848 0.312179 0.465820
0.125460 0.342997 0.506339
0.146048 0.376205 0.543014
0.185369 0.422724 0.583599
0.255286 0.466102 0.610188
0.567901 0.566940 0.583780
0.727667 0.608268 0.594102
0.823801 0.648557 0.624432
0.115197 0.368572 0.494202
0.135760 0.406226 0.534593
0.158384 0.442940 0.570734
0.201842 0.492593 0.614910
0.267863 0.540470 0.639142
0.625144 0.663975 0.647802
0.763455 0.695423 0.651067
0.846437 0.719447 0.660435
0.138399 0.491437 0.583394
0.159477 0.533200 0.623363
0.176662 0.566265 0.654675
0.217485 0.619760 0.698744
0.282030 0.680712 0.727071
0.658768 0.742260 0.644475
0.796784 0.756269 0.607853
0.862040 0.777019 0.650319
0.164683 0.636657 0.707384
0.183430 0.670493 0.733607
0.199203 0.695492 0.751367
0.246174 0.739022 0.778749
0.323809 0.777794 0.766512
0.701716 0.808454 0.647240
0.799357 0.831901 0.633386
0.883181 0.826664 0.552723
0.090952 0.238187 0.465606
0.104692 0.243964 0.454722
0.115443 0.248103 0.444991
0.124509 0.250423 0.433590
0.145084 0.259434 0.424506
0.231114 0.294369 0.427831
0.483956 0.301595 0.343086
0.672058 0.333740 0.352103
0.098355 0.271566 0.494257
0.116321 0.296840 0.536385
0.127030 0.300864 0.527502
0.138779 0.305680 0.514841
0.167100 0.318477 0.505933
0.284504 0.365494 0.501706
0.575674 0.385467 0.412888
0.714593 0.430694 0.445185
0.104486 0.299326 0.518193
0.123096 0.327070 0.556959
0.137573 0.347952 0.587282
0.155481 0.359345 0.588689
0.188454 0.372607 0.574332
0.343999 0.432929 0.567625
0.616743 0.477594 0.517927
0.750895 0.513368 0.538533
0.110003 0.323975 0.539575
0.129051 0.353952 0.576445
0.144608 0.378931 0.607911
0.171309 0.409265 0.645188
0.210854 0.426093 0.638072
0.402807 0.497645 0.629339
0.660279 0.547317 0.590943
0.780736 0.583371 0.608992
0.115871 0.349993 0.560071
0.135439 0.381824 0.598177
0.151501 0.409213 0.628800
0.182021 0.447768 0.668534
0.235796 0.484791 0.691637
0.482468 0.572412 0.683845
0.705051 0.619707 0.656421
0.806540 0.653910 0.671360
0.123908 0.392080 0.586727
0.143850 0.427777 0.624506
0.160095 0.456062 0.653529
0.197922 0.502677 0.694434
0.253242 0.544733 0.714336
0.563968 0.652238 0.731380
0.748436 0.695563 0.705804
0.833511 0.724946 0.719757
0.135682 0.460580 0.620022
0.155803 0.496469 0.654010
0.172901 0.524186 0.681567
0.217291 0.571674 0.719436
0.274201 0.610547 0.736569
0.594315 0.717726 0.754563
0.776196 0.776153 0.742362
0.851726 0.793709 0.751452
0.158495 0.570249 0.693582
0.177970 0.601601 0.721392
0.193636 0.625668 0.742305
0.224636 0.660409 0.769319
0.282896 0.710119 0.795818
0.548837 0.819377 0.825213
0.792395 0.834962 0.746087
0.872571 0.839406 0.713232
0.102214 0.286720 0.568619
0.115501 0.291238 0.558100
0.126043 0.295485 0.547447
0.134890 0.297237 0.535396
0.145549 0.299534 0.520367
0.181170 0.318777 0.515883
0.382108 0.361783 0.493638
0.649500 0.376148 0.420090
0.109653 0.320984 0.592386
0.126910 0.344329 0.628151
0.137904 0.350429 0.624780
0.146951 0.351997 0.613421
0.167819 0.364184 0.608794
0.208865 0.380870 0.595688
0.459202 0.448404 0.584856
0.687533 0.477695 0.546455
0.115555 0.347240 0.612717
0.133498 0.373326 0.647905
0.147577 0.393457 0.676146
0.157764 0.398976 0.675081
0.188796 0.417603 0.674437
0.241258 0.438055 0.661165
0.524574 0.514500 0.652295
0.727346 0.540134 0.616662
0.120973 0.371089 0.629775
0.139419 0.398934 0.664411
0.154205 0.421791 0.692614
0.168861 0.440423 0.716419
0.209372 0.464519 0.723512
0.308017 0.501397 0.713113
0.587519 0.574095 0.704957
0.760685 0.594439 0.672203
0.126861 0.396313 0.651327
0.145844 0.426475 0.683403
0.161247 0.450840 0.709274
0.177874 0.473813 0.735048
0.231978 0.513136 0.761688
0.410115 0.577204 0.755270
0.652092 0.643972 0.751978
0.790244 0.657182 0.726963
0.134221 0.428538 0.671761
0.153566 0.462673 0.703756
0.168936 0.487615 0.729786
0.192015 0.520997 0.756393
0.247614 0.563762 0.778596
0.508279 0.655532 0.793341
0.713806 0.720297 0.786552
0.819561 0.732679 0.774749
0.144031 0.482201 0.698876
0.162863 0.512103 0.727713
0.178431 0.538030 0.750625
0.211254 0.575367 0.778680
0.266993 0.612890 0.793110
0.541243 0.707193 0.808997
0.755307 0.780036 0.809370
0.842585 0.788920 0.794596
0.156493 0.548414 0.726124
0.175308 0.576950 0.752260
0.190676 0.599704 0.772142
0.230900 0.637448 0.798349
0.286829 0.669028 0.806651
0.559387 0.759217 0.824711
0.764027 0.829951 0.832658
0.854618 0.852246 0.813008
